packages/ffe-icons/icons/open/400/sm/date_range.svg

<svg xmlns="http://www.w3.org/2000/svg" height="20" viewBox="0 -960 960 960" width="20"><path d="M324.21-408q-15.21 0-25.71-10.29t-10.5-25.5q0-15.21 10.29-25.71t25.5-10.5q15.21 0 25.71 10.29t10.5 25.5q0 15.21-10.29 25.71t-25.5 10.5Zm156 0q-15.21 0-25.71-10.29t-10.5-25.5q0-15.21 10.29-25.71t25.5-10.5q15.21 0 25.71 10.29t10.5 25.5q0 15.21-10.29 25.71t-25.5 10.5Zm156 0q-15.21 0-25.71-10.29t-10.5-25.5q0-15.21 10.29-25.71t25.5-10.5q15.21 0 25.71 10.29t10.5 25.5q0 15.21-10.29 25.71t-25.5 10.5ZM216-96q-29.7 0-50.85-21.5Q144-139 144-168v-528q0-29 21.15-50.5T216-768h72v-60q0-15.3 10.29-25.65Q308.58-864 323.79-864t25.71 10.35Q360-843.3 360-828v60h240v-60q0-15.3 10.29-25.65Q620.58-864 635.79-864t25.71 10.35Q672-843.3 672-828v60h72q29.7 0 50.85 21.5Q816-725 816-696v528q0 29-21.15 50.5T744-96H216Zm0-72h528v-360H216v360Zm0-432h528v-96H216v96Zm0 0v-96 96Z"/></svg>

<svg xmlns="http://www.w3.org/2000/svg" height="20" viewBox="0 -960 960 960" width="20"><path d="M324.211-408Q309-408 298.5-418.289q-10.5-10.29-10.5-25.5Q288-459 298.289-469.5q10.29-10.5 25.5-10.5Q339-480 349.5-469.711q10.5 10.29 10.5 25.5Q360-429 349.711-418.5q-10.29 10.5-25.5 10.5Zm156 0Q465-408 454.5-418.289q-10.5-10.29-10.5-25.5Q444-459 454.289-469.5q10.29-10.5 25.5-10.5Q495-480 505.5-469.711q10.5 10.29 10.5 25.5Q516-429 505.711-418.5q-10.29 10.5-25.5 10.5Zm156 0Q621-408 610.5-418.289q-10.5-10.29-10.5-25.5Q600-459 610.289-469.5q10.29-10.5 25.5-10.5Q651-480 661.5-469.711q10.5 10.29 10.5 25.5Q672-429 661.711-418.5q-10.29 10.5-25.5 10.5ZM216-96q-29.7 0-50.85-21.5Q144-139 144-168v-528q0-29 21.15-50.5T216-768h72v-60q0-15.3 10.289-25.65 10.29-10.35 25.5-10.35Q339-864 349.5-853.65 360-843.3 360-828v60h240v-60q0-15.3 10.289-25.65 10.29-10.35 25.5-10.35Q651-864 661.5-853.65 672-843.3 672-828v60h72q29.7 0 50.85 21.5Q816-725 816-696v528q0 29-21.15 50.5T744-96H216Zm0-72h528v-360H216v360Zm0-432h528v-96H216v96Zm0 0v-96 96Z"/></svg>
